icons/forum.svg

<svg width="48" height="48" viewBox="0 0 48 48" fill="none" xmlns="http://www.w3.org/2000/svg">
<path fill-rule="evenodd" clip-rule="evenodd" d="M23.0731 30.0748C22.6981 30.1171 22.3169 30.1389 21.9306 30.1389H16V35C16 35 15.1941 34.8368 14 34.3774C10.5863 33.064 4 29.3301 4 20.0694C4 14.5082 8.50824 10 14.0694 10H21.9306C26.7824 10 30.8328 13.4315 31.7871 18H35.9448C40.3938 18 44.0004 21.6066 44.0004 26.0556C44.0004 33.3346 38.1721 36.3455 35.0004 37.445C33.8148 37.856 33.0004 38 33.0004 38V34.1111H30.0559C27.3041 34.1111 24.8746 32.7313 23.4214 30.6258C23.2981 30.4472 23.1819 30.2634 23.0731 30.0748ZM14 28.1389V32.2144C13.144 31.8369 12.1551 31.3127 11.1722 30.6018C8.58293 28.7287 6 25.5539 6 20.0694C6 15.6128 9.61281 12 14.0694 12H21.9306C26.2287 12 29.742 15.3604 29.9864 19.5973C29.9819 19.6857 29.9761 19.7737 29.9693 19.8615C29.7527 22.6459 28.4034 25.1126 26.3819 26.8012C25.1059 27.6465 23.5757 28.1389 21.9306 28.1389H14ZM27.5748 28.4095C26.8897 28.9707 26.1419 29.458 25.3433 29.8594C26.4544 31.2338 28.1541 32.1111 30.0559 32.1111H35.0004V35.3122C35.7491 35.0157 36.5948 34.6156 37.4327 34.0866C39.7995 32.5924 42.0004 30.1645 42.0004 26.0556C42.0004 22.7112 39.2892 20 35.9448 20H31.9998C31.9999 20.0231 32 20.0463 32 20.0694C32 23.539 30.2452 26.5987 27.5748 28.4095Z" fill="black"/>
</svg>

<svg
  xmlns="http://www.w3.org/2000/svg"
  width="24"
  height="24"
  viewBox="0 0 24 24"
  fill="none"
  stroke="currentColor"
  stroke-width="2"
  stroke-linecap="round"
  stroke-linejoin="round"
>
  <path
    fill-rule="evenodd"
    d="M23.073 30.075a10 10 0 0 1-1.142.064H16V35s-.806-.163-2-.623C10.586 33.064 4 29.33 4 20.07 4 14.51 8.508 10 14.07 10h7.86c4.852 0 8.903 3.432 9.857 8h4.158A8.056 8.056 0 0 1 44 26.056c0 7.279-5.828 10.29-9 11.389-1.185.411-2 .555-2 .555v-3.889h-2.944a8.05 8.05 0 0 1-6.983-4.036M14 28.139v4.075a15.6 15.6 0 0 1-2.828-1.612C8.582 28.729 6 25.554 6 20.069A8.07 8.07 0 0 1 14.07 12h7.86a8.07 8.07 0 0 1 8.056 7.597q-.006.133-.017.264a10.05 10.05 0 0 1-3.587 6.94 8.03 8.03 0 0 1-4.451 1.338zm13.575.27a12 12 0 0 1-2.232 1.45 6.05 6.05 0 0 0 4.713 2.252H35v3.201a14.8 14.8 0 0 0 2.433-1.225C39.8 32.592 42 30.164 42 26.056A6.056 6.056 0 0 0 35.945 20H32v.07c0 3.469-1.755 6.529-4.425 8.34"
    clip-rule="evenodd"
  />
</svg>
